packages/foundations/assets/icons/functional/images/transportation/car_20_inverted.svg

<svg width="20" height="20" viewBox="0 0 20 20" fill="none" xmlns="http://www.w3.org/2000/svg">
<g clip-path="url(#clip0_2214_6702)">
<path fill-rule="evenodd" clip-rule="evenodd" d="M13.6308 3.47113C14.4717 3.47113 15.2713 4.0654 15.4899 4.88123C15.6356 5.42512 15.9067 6.62176 16.303 8.47113H18V10.4711H16.895C16.745 11.8367 16.645 12.7131 16.595 13.1001C16.5449 13.4872 16.3469 13.8858 16.0009 14.2961V16.5288H13.5V15.2121C12.3333 15.3848 11.1667 15.4711 10 15.4711C8.83333 15.4711 7.66667 15.3848 6.5 15.2121L6.49327 16.5288H4L3.99998 14.2971C3.6442 13.8906 3.43591 13.4258 3.37511 12.9025C3.31431 12.3792 3.22394 11.5688 3.104 10.4711H2V8.47113H3.696L4.45716 5.0395C4.69517 4.23443 5.4 3.47786 6.29453 3.47786C7.18905 3.47786 12.7898 3.47113 13.6308 3.47113ZM8.63716 11.4796C8.37877 11.5188 8.15869 11.6906 8.058 11.9318L7.75435 13.1396C7.71781 13.4701 7.87183 13.7703 8.23988 13.9211C8.60792 14.0719 9.06538 13.8158 9.19249 13.5094L9.335 12.9711H10.664L10.8037 13.5001C10.9407 13.8432 11.3135 14.0408 11.6819 13.9487C12.0503 13.8566 12.2863 13.5068 12.2456 13.1396L11.942 11.9318C11.8413 11.6906 11.6212 11.5188 11.3628 11.4796H8.63716ZM4.9182 10.8243C4.51461 10.7311 4.11189 10.9828 4.01871 11.3864C3.9333 11.7564 4.13763 12.1256 4.48316 12.2563L6.04233 12.6233C6.44593 12.7165 6.84865 12.4648 6.94182 12.0612C7.02724 11.6913 6.8229 11.3221 6.47738 11.1913L4.9182 10.8243ZM15.9918 11.3864C15.9064 11.0164 15.5609 10.7741 15.193 10.8081L13.6308 11.1617C13.2272 11.2549 12.9755 11.6576 13.0687 12.0612C13.1541 12.4312 13.4996 12.6735 13.8675 12.6395L15.4298 12.2859C15.8334 12.1927 16.085 11.79 15.9918 11.3864ZM13.9577 5.17113H6.04326L5.4 8.47113H14.6L13.9577 5.17113Z" fill="#1A1C1F"/>
</g>
<defs>
<clipPath id="clip0_2214_6702">
<rect width="20" height="20" fill="white"/>
</clipPath>
</defs>
</svg>

<svg xmlns="http://www.w3.org/2000/svg" width="20" height="20" fill="none"><g clip-path="url(#a)"><path fill="#1A1C1F" fill-rule="evenodd" d="M13.63 3.471c.842 0 1.641.594 1.86 1.41q.219.816.813 3.59H18v2h-1.105q-.225 2.049-.3 2.63-.075.58-.594 1.195v2.233H13.5v-1.317a23.9 23.9 0 0 1-7 0l-.007 1.317H4v-2.232a2.5 2.5 0 0 1-.625-1.395q-.09-.784-.271-2.43H2v-2h1.696l.761-3.432c.238-.806.943-1.562 1.838-1.562zM8.638 11.48a.75.75 0 0 0-.579.452l-.304 1.208c-.036.33.118.63.486.781.368.15.825-.105.952-.412l.143-.538h1.329l.14.53a.75.75 0 0 0 1.442-.361l-.304-1.208a.75.75 0 0 0-.58-.452zm-3.719-.656a.75.75 0 0 0-.435 1.432l1.56.367a.75.75 0 0 0 .434-1.432zm11.074.562a.75.75 0 0 0-.799-.578l-1.562.354a.75.75 0 0 0 .236 1.477l1.563-.353a.75.75 0 0 0 .562-.9m-2.034-6.215H6.043l-.643 3.3h9.2z" clip-rule="evenodd"/></g><defs><clipPath id="a"><path fill="#fff" d="M0 0h20v20H0z"/></clipPath></defs></svg>
